src/categories-icons-sprite/categories/svg-cat-child-walker.svg

<svg width="31" height="22" viewBox="0 0 31 22" fill="none" xmlns="http://www.w3.org/2000/svg">
<path class="p-F8BD6F" d="M6.81836 2.74615V4.16112C8.05125 4.16112 9.20241 4.51412 10.1753 5.12426C11.1815 5.75524 11.9975 6.66113 12.5177 7.73723C12.9205 8.56959 13.1465 9.50302 13.1465 10.4892H16.9753C16.9753 9.50296 17.2004 8.56959 17.604 7.73794L17.5876 7.72976L17.604 7.73794C18.1242 6.66184 18.9395 5.75588 19.9457 5.1242C20.9192 4.51406 22.0696 4.16106 23.3033 4.16106V2.74609H6.81836V2.74615Z" fill="#B9DFFC"/>
<path class="p-CB9237" d="M6.81836 2.74609V4.16106C8.32297 7.73794 9.6513 10.4891 13.1457 10.4891C13.1457 9.5029 12.9205 8.56953 12.5177 7.73717C11.9974 6.66113 11.181 5.75547 10.1747 5.1245L19.9456 5.1242L19.9462 5.12503C18.94 5.75618 18.1238 6.66196 17.6039 7.73794C17.2004 8.56953 16.9752 9.50296 16.9752 10.4892C20.4703 10.4892 22.195 7.73717 23.3032 4.16112V2.74615L6.81836 2.74609Z" fill="#4D98CB"/>
<path class="p-808080" d="M25.9667 20.0453C25.9667 20.1011 25.9644 20.1561 25.9592 20.2103C25.876 21.2121 25.0362 21.9999 24.0121 21.9999C22.988 21.9999 22.1483 21.2121 22.065 20.2103C22.0599 20.1561 22.0576 20.1011 22.0576 20.0453C22.0576 19.8707 22.0807 19.7028 22.1237 19.5415H25.9005C25.9436 19.7028 25.9667 19.8707 25.9667 20.0453Z" fill="#65B3E7"/>
<path class="p-808080" d="M8.06453 20.0453C8.06453 20.1011 8.06229 20.1561 8.05711 20.2103C7.97386 21.2121 7.1341 21.9999 6.11001 21.9999C5.08668 21.9999 4.24691 21.2121 4.16366 20.2103C4.15849 20.1561 4.15625 20.1011 4.15625 20.0453C4.15625 19.8707 4.17855 19.7028 4.22167 19.5415H7.99916C8.04223 19.7028 8.06453 19.8707 8.06453 20.0453Z" fill="#65B3E7"/>
<path class="p-F95428" d="M28.6929 16.6841H26.8771L28.2626 4.93837L28.5079 2.85747H28.6929C29.4822 2.85747 30.122 2.21762 30.122 1.42838C30.122 1.03374 29.9622 0.67704 29.7036 0.418414C29.445 0.159788 29.0875 0 28.6929 0H1.42838C0.639152 5.88321e-05 0 0.639917 0 1.42838C0 1.82303 0.159788 2.18049 0.418414 2.43912C0.676275 2.69775 1.03374 2.85753 1.42838 2.85753H1.61341L1.85868 4.93842L3.24418 16.6842H1.42838C0.639152 16.6841 0 17.324 0 18.1125C0 18.5072 0.159788 18.8646 0.418414 19.1233C0.676275 19.3819 1.03374 19.5417 1.42838 19.5417H4.2212H7.99869H22.1233H25.9001H28.6929C29.4822 19.5417 30.122 18.9018 30.122 18.1126C30.122 17.7179 29.9622 17.3612 29.7036 17.1026C29.445 16.8439 29.0875 16.6841 28.6929 16.6841ZM24.8052 16.6841H24.792H5.32925H5.31607L3.93057 4.93837L3.6853 2.85747H6.81846H23.3034H26.4359L26.1906 4.93837L24.8052 16.6841Z" fill="#76B7E2"/>
<path class="p-666666" d="M25.8996 19.5415H22.1228C22.0797 19.7028 22.0567 19.8707 22.0567 20.0453C22.0567 20.1011 22.0589 20.1561 22.0641 20.2103H25.9583C25.9635 20.1561 25.9657 20.1011 25.9657 20.0453C25.9657 19.8707 25.9427 19.7028 25.8996 19.5415ZM4.22069 19.5415C4.17757 19.7028 4.15527 19.8707 4.15527 20.0453C4.15527 20.1011 4.15751 20.1561 4.16269 20.2103H8.05613C8.06131 20.1561 8.06355 20.1011 8.06355 20.0453C8.06355 19.8707 8.04125 19.7028 7.99813 19.5415H4.22069Z" fill="#4D98CB"/>
<path class="p-D33924" d="M28.5076 2.85767L28.2624 4.9385H26.1904L26.4356 2.85767H28.5076Z" fill="#4D98CB"/>
<path class="p-D33924" d="M5.01714 2.43912C4.75852 2.18049 4.59873 1.82303 4.59873 1.42838C4.59873 0.639857 5.23788 0 6.02711 0H1.42838C0.639152 5.8832e-05 0 0.639916 0 1.42838C0 1.82303 0.159788 2.18049 0.418414 2.43912C0.676275 2.69774 1.03374 2.85753 1.42838 2.85753H1.61341L1.85868 4.93842H3.93063L3.68536 2.85753H6.02705C5.63247 2.85753 5.275 2.69774 5.01714 2.43912Z" fill="#4D98CB"/>
<path class="p-D33924" d="M4.18549 18.1125C4.18549 17.3239 4.82464 16.6841 5.61388 16.6841H5.32925H3.2573H1.42838C0.639152 16.6841 0 17.3239 0 18.1125C0 18.5071 0.159788 18.8646 0.418414 19.1232C0.676275 19.3818 1.03374 19.5416 1.42838 19.5416H4.2212H5.61388C5.21923 19.5416 4.86177 19.3818 4.60391 19.1232C4.34528 18.8645 4.18549 18.5071 4.18549 18.1125Z" fill="#4D98CB"/>
</svg>

<svg width="31" height="22" fill="none" xmlns="http://www.w3.org/2000/svg"><path class="p-F8BD6F" d="M6.818 2.746v1.415c1.233 0 2.384.353 3.357.963a6.352 6.352 0 012.343 2.613 6.3 6.3 0 01.628 2.752h3.83c0-.986.224-1.92.628-2.751l-.016-.008.016.008a6.357 6.357 0 012.342-2.614 6.3 6.3 0 013.357-.963V2.746H6.818z" fill="#B9DFFC"/><path class="p-CB9237" d="M6.818 2.746v1.415c1.505 3.577 2.833 6.328 6.328 6.328a6.3 6.3 0 00-.628-2.752 6.353 6.353 0 00-2.343-2.612H19.946a6.352 6.352 0 00-2.342 2.613 6.284 6.284 0 00-.629 2.751c3.495 0 5.22-2.752 6.328-6.328V2.746H6.818z" fill="#4D98CB"/><path class="p-808080" d="M25.967 20.045a1.954 1.954 0 11-3.843-.504H25.9c.043.162.066.33.066.504zM8.065 20.045a1.954 1.954 0 11-3.843-.504h3.777c.043.162.066.33.066.504z" fill="#65B3E7"/><path class="p-F95428" d="M28.693 16.684h-1.816l1.386-11.746.245-2.08h.185a1.43 1.43 0 100-2.858H1.428a1.428 1.428 0 000 2.858h.185l.246 2.08 1.385 11.746H1.428a1.428 1.428 0 100 2.858h27.265a1.43 1.43 0 000-2.858zm-3.888 0H5.316L3.931 4.938l-.246-2.08H26.436l-.245 2.08-1.386 11.746z" fill="#76B7E2"/><path class="p-666666" d="M25.9 19.541h-3.777a1.944 1.944 0 00-.059.67h3.894a1.944 1.944 0 00-.059-.669zm-21.68 0a1.943 1.943 0 00-.057.67h3.893a1.943 1.943 0 00-.058-.669H4.221z" fill="#4D98CB"/><path class="p-D33924" d="M28.508 2.858l-.246 2.08H26.19l.246-2.08h2.072zM5.017 2.44A1.428 1.428 0 016.027 0H1.428a1.428 1.428 0 000 2.858h.185l.246 2.08H3.93l-.246-2.08h2.342c-.395 0-.752-.16-1.01-.419zM4.185 18.113c0-.79.64-1.429 1.429-1.429H1.428a1.428 1.428 0 100 2.858h4.186c-.395 0-.752-.16-1.01-.419a1.425 1.425 0 01-.419-1.01z" fill="#4D98CB"/></svg>
